packages/ui-icons/svg/Solid/collection-save.svg

<svg viewBox="0 0 1920 1920" version="1.1" xmlns="http://www.w3.org/2000/svg">
    <path d="M1467.55189,1700.25248 L459.789763,1700.25248 L162.361496,1402.82421 L7,1558.18571 L368.81429,1920 L1558.52736,1920 L1920.34165,1558.18571 L1764.98015,1402.82421 L1467.55189,1700.25248 Z M965.901262,1423.30468 L448.725476,906.128896 L604.086972,750.7674 L856.027503,1002.70793 L856.027503,0 L1075.77502,0 L1075.77502,1002.70793 L1327.71555,750.7674 L1483.07705,906.128896 L965.901262,1423.30468 Z" stroke="none" stroke-width="1" fill-rule="evenodd"/>
</svg>

<svg viewBox="0 0 1920 1920" version="1.1" xmlns="http://www.w3.org/2000/svg">
    <path d="M1467.552 1700.252H459.79L162.36 1402.824 7 1558.186 368.814 1920h1189.713l361.815-361.814-155.362-155.362-297.428 297.428zm-501.65-276.947L448.724 906.129l155.362-155.362 251.94 251.94V0h219.748v1002.708l251.94-251.94 155.362 155.36-517.176 517.177z" stroke="none" stroke-width="1" fill-rule="evenodd"/>
</svg>
